frontend/public/drawerInvoiceAndBillingOrange.svg

<svg width="36" height="36" viewBox="0 0 36 36" fill="none" xmlns="http://www.w3.org/2000/svg">
<path d="M31.4304 16.2422C32.5167 16.2422 32.9702 14.8465 32.0878 14.2031L18.6616 4.43673C18.4699 4.29625 18.2384 4.22052 18.0007 4.22052C17.763 4.22052 17.5315 4.29625 17.3398 4.43673L3.9136 14.2031C3.03117 14.843 3.48469 16.2422 4.57453 16.2422H6.75071V29.3906H4.21946C4.06477 29.3906 3.93821 29.5172 3.93821 29.6719V31.5C3.93821 31.6547 4.06477 31.7813 4.21946 31.7813H31.782C31.9366 31.7813 32.0632 31.6547 32.0632 31.5V29.6719C32.0632 29.5172 31.9366 29.3906 31.782 29.3906H29.2507V16.2422H31.4304ZM18.0007 6.91525L27.5316 13.8481H8.46985L18.0007 6.91525ZM9.28196 16.2422H13.3952V29.3906H9.28196V16.2422ZM15.9265 16.2422H20.0398V29.3906H15.9265V16.2422ZM26.7195 29.3906H22.571V16.2422H26.7195V29.3906Z" fill="#FB4A04"/>
</svg>

<?xml version="1.0" encoding="UTF-8"?>
<svg id="Layer_1" data-name="Layer 1" xmlns="http://www.w3.org/2000/svg" width="36" height="36" viewBox="0 0 36 36">
  <defs>
    <style>
      .cls-1 {
        fill: #eece93;
        stroke-width: 0px;
      }
    </style>
  </defs>
  <path class="cls-1" d="M31.43,16.24c1.09,0,1.54-1.4.66-2.04l-13.43-9.77c-.19-.14-.42-.22-.66-.22s-.47.08-.66.22L3.91,14.2c-.88.64-.43,2.04.66,2.04h2.18v13.15h-2.53c-.15,0-.28.13-.28.28v1.83c0,.15.13.28.28.28h27.56c.15,0,.28-.13.28-.28v-1.83c0-.15-.13-.28-.28-.28h-2.53v-13.15h2.18ZM18,6.92l9.53,6.93H8.47l9.53-6.93ZM9.28,16.24h4.11v13.15h-4.11v-13.15ZM15.93,16.24h4.11v13.15h-4.11v-13.15ZM26.72,29.39h-4.15v-13.15h4.15v13.15Z"/>
</svg>
